src/images/svg/symbols/gbp-sek.svg

<svg width="32" height="32" viewBox="0 0 32 32" fill="none" xmlns="http://www.w3.org/2000/svg">
<mask id="mask0_10233_13281" style="mask-type:alpha" maskUnits="userSpaceOnUse" x="0" y="4" width="24" height="16">
<path d="M22 4H2C0.89543 4 0 4.89543 0 6V18C0 19.1046 0.89543 20 2 20H22C23.1046 20 24 19.1046 24 18V6C24 4.89543 23.1046 4 22 4Z" fill="white"/>
</mask>
<g mask="url(#mask0_10233_13281)">
<path d="M22 4H2C0.89543 4 0 4.89543 0 6V18C0 19.1046 0.89543 20 2 20H22C23.1046 20 24 19.1046 24 18V6C24 4.89543 23.1046 4 22 4Z" fill="#0D47A1"/>
<path d="M23.9751 5.53733C23.8335 4.67261 23.094 4.01318 22.2026 4.01318H21.7349L14.069 9.11542V4.01318H9.93103V9.11547L2.26509 4.01318H1.79742C0.906 4.01318 0.166547 4.67261 0.0248906 5.53737L6.57698 9.89833H0V14.1019H6.57698L0.0248906 18.4628C0.166547 19.3275 0.906 19.9869 1.79742 19.9869H2.26509L9.93103 14.8847V19.9869H14.069V14.8847L21.7349 19.9869H22.2026C23.094 19.9869 23.8335 19.3276 23.9751 18.4628L17.423 14.1019H24V9.89823H17.423L23.9751 5.53733Z" fill="white"/>
<path d="M13.2414 4.01318V10.7389H24V13.2611H13.2414V19.9869H10.7586V13.2611H0V10.7389H10.7586V4.01318H13.2414ZM9.90825 14.1019L1.16217 19.8692C0.934209 19.7817 0.728507 19.6484 0.555672 19.4805L0.432375 19.3481L8.38819 14.1019H9.90825ZM16.2369 14.1019L23.7639 19.0652C23.651 19.2659 23.5018 19.4427 23.3253 19.5864L23.1879 19.6878L14.7169 14.1019H16.2369ZM0.725391 4.37347L9.10345 9.89823H7.58339L0.189797 5.02266C0.316359 4.76595 0.500437 4.54356 0.725391 4.37347ZM22.8235 4.12514C23.1105 4.23242 23.3626 4.41223 23.5594 4.64228L15.589 9.89823H14.069L22.8235 4.12514Z" fill="#F44336"/>
<path fill-rule="evenodd" clip-rule="evenodd" d="M22 5H2C1.44772 5 1 5.44772 1 6V18C1 18.5523 1.44772 19 2 19H22C22.5523 19 23 18.5523 23 18V6C23 5.44771 22.5523 5 22 5ZM2 4C0.895431 4 0 4.89543 0 6V18C0 19.1046 0.89543 20 2 20H22C23.1046 20 24 19.1046 24 18V6C24 4.89543 23.1046 4 22 4H2Z" fill="black" fill-opacity="0.04"/>
</g>
<mask id="mask1_10233_13281" style="mask-type:alpha" maskUnits="userSpaceOnUse" x="8" y="12" width="24" height="16">
<path d="M30 12H10C8.89543 12 8 12.8954 8 14V26C8 27.1046 8.89543 28 10 28H30C31.1046 28 32 27.1046 32 26V14C32 12.8954 31.1046 12 30 12Z" fill="white"/>
</mask>
<g mask="url(#mask1_10233_13281)">
<path d="M30 12H10C8.89543 12 8 12.8954 8 14V26C8 27.1046 8.89543 28 10 28H30C31.1046 28 32 27.1046 32 26V14C32 12.8954 31.1046 12 30 12Z" fill="#006AA7"/>
<path d="M32 18.5H18V12H15V18.5H8V21.5H15V28H18V21.5H32V18.5Z" fill="#FECC00"/>
<path fill-rule="evenodd" clip-rule="evenodd" d="M30 13H10C9.44772 13 9 13.4477 9 14V26C9 26.5523 9.44772 27 10 27H30C30.5523 27 31 26.5523 31 26V14C31 13.4477 30.5523 13 30 13ZM10 12C8.89543 12 8 12.8954 8 14V26C8 27.1046 8.89543 28 10 28H30C31.1046 28 32 27.1046 32 26V14C32 12.8954 31.1046 12 30 12H10Z" fill="black" fill-opacity="0.04"/>
</g>
</svg>

<svg width="32" height="32" fill="none" xmlns="http://www.w3.org/2000/svg"><mask id="a" style="mask-type:alpha" maskUnits="userSpaceOnUse" x="0" y="4" width="24" height="16"><path d="M22 4H2a2 2 0 0 0-2 2v12a2 2 0 0 0 2 2h20a2 2 0 0 0 2-2V6a2 2 0 0 0-2-2Z" fill="#fff"/></mask><g mask="url(#a)"><path d="M22 4H2a2 2 0 0 0-2 2v12a2 2 0 0 0 2 2h20a2 2 0 0 0 2-2V6a2 2 0 0 0-2-2Z" fill="#0D47A1"/><path d="M23.975 5.537a1.806 1.806 0 0 0-1.772-1.524h-.468l-7.666 5.102V4.013H9.931v5.102L2.265 4.013h-.468c-.891 0-1.63.66-1.772 1.524l6.552 4.361H0v4.204h6.577l-6.552 4.36a1.806 1.806 0 0 0 1.772 1.525h.468l7.666-5.102v5.102h4.138v-5.102l7.666 5.102h.468c.891 0 1.63-.66 1.772-1.524l-6.552-4.361H24V9.898h-6.577l6.552-4.36Z" fill="#fff"/><path d="M13.241 4.013v6.726H24v2.522H13.241v6.726H10.76V13.26H0V10.74h10.759V4.013h2.482ZM9.908 14.102l-8.746 5.767a1.794 1.794 0 0 1-.606-.389l-.124-.132 7.956-5.246h1.52Zm6.329 0 7.527 4.963c-.113.2-.262.378-.439.521l-.137.102-8.471-5.586h1.52ZM.725 4.373l8.378 5.525h-1.52L.19 5.023c.126-.257.31-.48.535-.65Zm22.099-.248c.286.107.539.287.735.517l-7.97 5.256h-1.52l8.754-5.773Z" fill="#F44336"/><path fill-rule="evenodd" clip-rule="evenodd" d="M22 5H2a1 1 0 0 0-1 1v12a1 1 0 0 0 1 1h20a1 1 0 0 0 1-1V6a1 1 0 0 0-1-1ZM2 4a2 2 0 0 0-2 2v12a2 2 0 0 0 2 2h20a2 2 0 0 0 2-2V6a2 2 0 0 0-2-2H2Z" fill="#000" fill-opacity=".04"/></g><mask id="b" style="mask-type:alpha" maskUnits="userSpaceOnUse" x="8" y="12" width="24" height="16"><path d="M30 12H10a2 2 0 0 0-2 2v12a2 2 0 0 0 2 2h20a2 2 0 0 0 2-2V14a2 2 0 0 0-2-2Z" fill="#fff"/></mask><g mask="url(#b)"><path d="M30 12H10a2 2 0 0 0-2 2v12a2 2 0 0 0 2 2h20a2 2 0 0 0 2-2V14a2 2 0 0 0-2-2Z" fill="#006AA7"/><path d="M32 18.5H18V12h-3v6.5H8v3h7V28h3v-6.5h14v-3Z" fill="#FECC00"/><path fill-rule="evenodd" clip-rule="evenodd" d="M30 13H10a1 1 0 0 0-1 1v12a1 1 0 0 0 1 1h20a1 1 0 0 0 1-1V14a1 1 0 0 0-1-1Zm-20-1a2 2 0 0 0-2 2v12a2 2 0 0 0 2 2h20a2 2 0 0 0 2-2V14a2 2 0 0 0-2-2H10Z" fill="#000" fill-opacity=".04"/></g></svg>
